X:6283
T:Steamboat Quickstep
O:england
R:double jig
M:6/8
L:1/8
K:A
e|a2e c2A|Ace a2a|agf edc|Bcd cBA|
a2e c2A|Ace a2a|agf edc|edB A2:|
B|c2e efe|efe c2A|d2f fga|fga f2e|
c2e efe|efe c2e|agf edc|edB A2:|


